Adwaita++-Light/panel/22/mailspring-tray-empty.svg

<svg height="22" width="22" xmlns="http://www.w3.org/2000/svg">
  <path d="m11 2.9999999a8 8 0 0 0 -8 8.0000001 8 8 0 0 0 8 8 8 8 0 0 0 8-8 8 8 0 0 0 -8-8.0000001zm-5 4h10l-5 5.0000001zm0 1.4140622 3.2929688 3.2929689-3.2929688 3.292969zm10 0v6.5859379l-3.292969-3.292969zm-6 3.9999999.292969.292969a1.0001 1.0001 0 0 0 1.414062 0l.292969-.292969 2.585938 2.585938h-7.1718755z" fill="#444" opacity=".3"/>
</svg>

<svg xmlns="http://www.w3.org/2000/svg" width="22" height="22" version="1.1">
 <defs>
  <style id="current-color-scheme" type="text/css">
   .ColorScheme-Text { color:#444444; } .ColorScheme-Highlight { color:#4285f4; }
  </style>
 </defs>
 <path style="fill:currentColor;opacity:0.3" class="ColorScheme-Text" d="M 11,2.9999999 A 8,8 0 0 0 3,11 a 8,8 0 0 0 8,8 8,8 0 0 0 8,-8 8,8 0 0 0 -8,-8.0000001 z m -5,4 10,0 L 11,12 6,6.9999999 Z M 6,8.4140621 9.2929688,11.707031 6,15 6,8.4140621 Z m 10,0 L 16,15 12.707031,11.707031 16,8.4140621 Z m -6,3.9999999 0.292969,0.292969 a 1.0001,1.0001 0 0 0 1.414062,0 L 12,12.414062 14.585938,15 7.4140625,15 10,12.414062 Z"/>
</svg>
